!!! OTL: Literature42
!!! Chapter: 5
!!! Section: I
!!! Page: 353
!!! Mode: 
!!! Encoder: DJB
**kern
*staff1
*I"Piano
=1-
*clefF4
*k[f#c#g#]
*A:
*M2/4
4A\
8E\L
16F#\L
16E\JJ
=2
8C#/L
8C#/J
8C#/L
16D/L
16C#/JJ
=3
8BB/L
8BB/J
8BB/L
16C#/L
16BB/JJ
=4
8AA/L
8AA/J
4AA/
=5
4A\
8E\L
16F#\L
16E\JJ
=6
8C#/L
8C#/J
8C#/L
16D/L
16C#/JJ
=7
8BB/L
8BB/J
8BB/L
16C#/L
16BB/JJ
=8
4.AA/
8AA/
=9
!!linebreak:original
4.C#/
8D\
=10
4.E\
8F#\
=11
8E\L
8D\J
8D\L
8E\J
=12
8D/L
8C#/J
8C#/L
8AA/J
=13
4.C#/
8D\
=14
4.E\
8A\
=15
8.G#\L
16G#\Jk
8G#\L
8G#\J
=16
4A\
8r
8A\
=17
8.F#\L
16F#\Jk
8.A\L
16F#\Jk
=18
8F#\L
8E\J
8E\L
8E\J
=19
!!linebreak:original
8G#\L
8G#\J
8G#\L
8G#\J
=20
8B\L
8A\J
8A\L
8A\J
=21
8F#\L
8F#\J
8.A\L
16F#\Jk
=22
8F#\L
8E\J
8E\L
8E\J
=23
8.G#\L
16G#\Jk
8G#\L
8G#\J
=24
4A\
4r
==
*-
